X:94
T:Allice Gray. JBs.094
S:Jas.Blackshaw MS, 1837, N.Shropshire
A:North Shropshire
Z:T. Weatherall 2006
M:4/4
L:1/8
Q:1/4=100
R:Air
K:F
c2|c3Af3d|c3BA2A2|G2gf edcB|B4A2c>A|F3GA2B2|c4z2f2|e2d2c2=B2|{d}c4||!
c2|g3ec2B2|A3Bc2c2|f2A2G2F2|{F}E4z2c>A|F3GA2B2|c4B2A2|!
G2gf edcB|B4A2c2|d3de3e|fa3zf2|g3fg2a2|{e}f4z2|]

